svg/lamp.svg

<svg xmlns="http://www.w3.org/2000/svg" viewBox="0 0 24 24"><path d="M8 2h8l4 12H4zm3 13h2v5h5v2H6v-2h5z"/></svg>

<?xml version="1.0" encoding="UTF-8"?><!DOCTYPE svg PUBLIC "-//W3C//DTD SVG 1.1//EN" "http://www.w3.org/Graphics/SVG/1.1/DTD/svg11.dtd"><svg xmlns="http://www.w3.org/2000/svg" xmlns:xlink="http://www.w3.org/1999/xlink" version="1.1" id="mdi-lamp" width="24" height="24" viewBox="0 0 24 24"><path d="M8,2H16L20,14H4L8,2M11,15H13V20H18V22H6V20H11V15Z" /></svg>
